lib/flags/l/GNB.svg

<svg xmlns="http://www.w3.org/2000/svg" fill="none" viewBox="0 0 32 24"><mask id="GNB_svg__a" width="32" height="24" x="0" y="0" mask-type="alpha" maskUnits="userSpaceOnUse"><path fill="#fff" d="M0 0H32V24H0z"/></mask><g fill-rule="evenodd" clip-rule="evenodd" mask="url(#GNB_svg__a)"><path fill="#FBCD17" d="M16 0H32V12H16V0Z"/><path fill="#0B9E7A" d="M16 12H32V24H16V12Z"/><path fill="#E11C1B" d="M0 0H16V24H0V0Z"/><path fill="#1D1D1D" d="M8.93065 14.6063L5.44503 17.024L6.55881 12.883L4 10.2378L7.46478 10.0948L8.93065 6L10.3965 10.0948H13.8554L11.3025 12.883L12.581 16.7796L8.93065 14.6063Z"/></g></svg>

<svg xmlns="http://www.w3.org/2000/svg" fill="none" viewBox="0 0 32 24"><mask id="GNB_svg__a" width="32" height="24" x="0" y="0" maskUnits="userSpaceOnUse"><path fill="#fff" d="M0 0h32v24H0z"/></mask><g fill-rule="evenodd" clip-rule="evenodd" mask="url(#GNB_svg__a)"><path fill="#FBCD17" d="M16 0h16v12H16V0z"/><path fill="#0B9E7A" d="M16 12h16v12H16V12z"/><path fill="#E11C1B" d="M0 0h16v24H0V0z"/><path fill="#1D1D1D" d="M8.93 14.606l-3.485 2.418 1.114-4.141L4 10.238l3.465-.143L8.93 6l1.466 4.095h3.458l-2.553 2.788 1.279 3.897-3.65-2.174z"/></g></svg>
